src/preferences/32/klipper.svg

<svg version="1.1" viewBox="0 0 32 32" xmlns="http://www.w3.org/2000/svg" xmlns:xlink="http://www.w3.org/1999/xlink">
 <defs>
  <style id="current-color-scheme" type="text/css">.ColorScheme-Text { color:#363636; }</style>
  <linearGradient id="a" x1="7.937" x2="7.937" y1="15.081" y2="1.852" gradientTransform="matrix(1.8897 0 0 1.8897 .001 .016)" gradientUnits="userSpaceOnUse">
   <stop stop-color="#3377f4" offset="0"/>
   <stop stop-color="#5194f5" offset="1"/>
  </linearGradient>
 </defs>
 <image x=".5" y="1" width="31" height="31" image-rendering="optimizeQuality" preserveAspectRatio="none" xlink:href="data:image/png;base64,iVBORw0KGgoAAAANSUhEUgAAAB8AAAAfCAYAAAAfrhY5AAAACXBIWXMAAA7DAAAOwwHHb6hkAAAA GXRFWHRTb2Z0d2FyZQB3d3cuaW5rc2NhcGUub3Jnm+48GgAAAPdJREFUSMftl7GuwjAMRY9NXlk6 8P9fycBCaWsGbJTmwQIkMORKVqWo6rm+zWCLmVFKRATI61VZlD0ASXkmIjsgAXtgAHZvwBdgAs7A bGbLQ7h3m4DR6++DnV+Ak9ccKaTsxQQcHJzehJaKNBNwdDNoFnXZ8Scl/t0RGJ13g2dxJ+pqw1ER Ub9cNTp+lsBeRFT9YGgAzg0MgARcG8M14DQE5wbuF+4r6vAO7/AO7/CqcGvMtYAbsDY0cOcFfGoM nwBTM1t9rr40MBBj9NnM1vjnc8zUleEbjnLbZZZsqK+RwGZxiM0lFa6O/qy6sfzWrlZzS/VL/U9X YfxzIl867ocAAAAASUVORK5CYII="/>
 <rect x="2" y="2" width="28" height="28" rx="7" ry="7" fill="url(#a)" stroke-width=".49998"/>
 <path d="m9 2c-3.878 0-7 3.122-7 7v14c0 3.878 3.122 7 7 7h14c3.878 0 7-3.122 7-7v-14c0-3.878-3.122-7-7-7zm0 0.5h14c3.601 0 6.5 2.899 6.5 6.5v14c0 3.601-2.899 6.5-6.5 6.5h-14a6.486 6.486 0 0 1-6.5-6.5v-14c0-3.601 2.899-6.5 6.5-6.5z" fill="#ffffff" opacity=".15" stroke-width=".49998"/>
 <path class="ColorScheme-Text" d="m16 7c-1.1046 0-2 0.89543-2 2h-3v0.0059c-1.113 0.03258-2 0.93345-2 2.0547v10.879c0 1.142 0.91853 2.0605 2.0605 2.0605h9.879c1.142 0 2.0605-0.91853 2.0605-2.0605v-10.879c0-1.142-0.91853-2.0605-2.0605-2.0605h-2.9394c0-0.138-0.0053-0.27625-0.03125-0.40625-0.19615-0.93036-1.0179-1.5956-1.9688-1.5938zm-0.01172 1c0.0039-2.29e-5 0.0078-2.29e-5 0.01172 0 0.414 0 0.75425 0.266 0.90625 0.625 0.05689 0.11716 0.08882 0.24486 0.09375 0.375-6.1e-5 0.88813-1.0716 1.3352-1.7031 0.71094-0.63157-0.62426-0.19666-1.7005 0.69141-1.7109zm-4.9883 2h3v1s-1 0-1 1h6c0-0.75-0.56275-0.953-0.84375-1h-0.15625v-1h3c0.554 0 1 0.446 1 1v11c0 0.554-0.446 1-1 1h-10c-0.554 0-1-0.446-1-1v-11c0-0.554 0.446-1 1-1z" color="#363636" fill="#ffffff"/>
 <rect x="13" y="15" width="6" height="1" rx=".5" ry=".5" fill="#ffffff" stroke-linecap="round" stroke-linejoin="round" stroke-width="2" style="paint-order:stroke fill markers"/>
 <rect x="13" y="18" width="6" height="1" rx=".5" ry=".5" fill="#ffffff" stroke-linecap="round" stroke-linejoin="round" stroke-width="2" style="paint-order:stroke fill markers"/>
</svg>

<svg xmlns="http://www.w3.org/2000/svg" xmlns:xlink="http://www.w3.org/1999/xlink" viewBox="0 0 32 32"><defs><linearGradient id="a" x1="7.937" x2="7.937" y1="15.081" y2="1.852" gradientTransform="translate(.001 .016)scale(1.8897)" gradientUnits="userSpaceOnUse"><stop offset="0" stop-color="#3377f4"/><stop offset="1" stop-color="#5194f5"/></linearGradient></defs><image xlink:href="data:image/png;base64,iVBORw0KGgoAAAANSUhEUgAAAB8AAAAfCAYAAAAfrhY5AAAACXBIWXMAAA7DAAAOwwHHb6hkAAAA GXRFWHRTb2Z0d2FyZQB3d3cuaW5rc2NhcGUub3Jnm+48GgAAAPdJREFUSMftl7GuwjAMRY9NXlk6 8P9fycBCaWsGbJTmwQIkMORKVqWo6rm+zWCLmVFKRATI61VZlD0ASXkmIjsgAXtgAHZvwBdgAs7A bGbLQ7h3m4DR6++DnV+Ak9ccKaTsxQQcHJzehJaKNBNwdDNoFnXZ8Scl/t0RGJ13g2dxJ+pqw1ER Ub9cNTp+lsBeRFT9YGgAzg0MgARcG8M14DQE5wbuF+4r6vAO7/AO7/CqcGvMtYAbsDY0cOcFfGoM nwBTM1t9rr40MBBj9NnM1vjnc8zUleEbjnLbZZZsqK+RwGZxiM0lFa6O/qy6sfzWrlZzS/VL/U9X YfxzIl867ocAAAAASUVORK5CYII=" width="31" height="31" x=".5" y="1" image-rendering="optimizeQuality" preserveAspectRatio="none"/><rect width="28" height="28" x="2" y="2" fill="url(#a)" rx="7" ry="7"/><path fill="#fff" d="M9 2C5.122 2 2 5.122 2 9v14c0 3.878 3.122 7 7 7h14c3.878 0 7-3.122 7-7V9c0-3.878-3.122-7-7-7zm0 .5h14c3.601 0 6.5 2.899 6.5 6.5v14c0 3.601-2.899 6.5-6.5 6.5H9A6.486 6.486 0 0 1 2.5 23V9c0-3.601 2.899-6.5 6.5-6.5" opacity=".15"/><path fill="#fff" d="M16 7a2 2 0 0 0-2 2h-3v.006c-1.113.032-2 .933-2 2.055V21.94c0 1.142.919 2.06 2.06 2.06h9.88c1.142 0 2.06-.918 2.06-2.06V11.06C23 9.92 22.081 9 20.94 9H18c0-.138-.005-.276-.031-.406A2.01 2.01 0 0 0 16 7m-.012 1H16c.414 0 .754.266.906.625A.9.9 0 0 1 17 9c0 .888-1.072 1.335-1.703.71-.632-.623-.197-1.7.691-1.71M11 10h3v1s-1 0-1 1h6c0-.75-.563-.953-.844-1H18v-1h3c.554 0 1 .446 1 1v11c0 .554-.446 1-1 1H11c-.554 0-1-.446-1-1V11c0-.554.446-1 1-1" style="color:#363636"/><rect width="6" height="1" x="13" y="15" fill="#fff" rx=".5" ry=".5" style="paint-order:stroke fill markers"/><rect width="6" height="1" x="13" y="18" fill="#fff" rx=".5" ry=".5" style="paint-order:stroke fill markers"/></svg>
